X: 48
T: First Grand Trio	 Op. 8
C: Fryderyk Chopin
%%abc-version 2.0
%%abcx-abcm2ps-target-version 5.9.1 (29 Sep 2008)
%%abc-creator hum2abc beta
%%abcx-conversion-date 2021/10/03 11:23:55
%%abc-edited-by Wojciech Jakubiak-Danek
%%abcx-initial-encoding-date 2019-11-12
%%humdrum-veritas 1368388214
%%humdrum-veritas-data 959480245
%%linebreak <none>
%%barnumbers 0
L: 1/8
M: 3/4
N: Derived from 008-1b-W-003-violino.krn
P: First Grand Trio for Pianoforte, Violin et Violoncello. Concertant.
Q: "[quarter] = 63."
K: Eb clef=treble
Z2 | 
!accent!_G2>G2 (3GDE/ | 
!accent!F2>z2z2 | 
G2A2D2 | 
E2C z z E | 
=E2F2G3/A/ | 
!accent!G2F3B, | 
E4F2 | 
G2!accent!E4 | 
D z z .D.D.C | 
=B,2>z2z2 | 
e2(5:4:5d/e/d/^c/d/ !accent!g3/f/ | 
B>=Bc2z c | 
(3:2:6_B/c/B/=A/B/c/ B_AGA | 
!accent!G2F2(3:2:6=E/F/G/F/A/G/ | 
_E4(3:2:6D/E/F/G/A/B/ | 
!accent!_dc (3:2:6G/B/G/B/f/e/ _dc | 
=B/c/d/c/ (7:4:7!accent!G!accent!A!accent!_BAFCD | 
F2E zz2 | 
Z3 | 
z2z2B2 | 
=E>G (5:4:5B/c/B/=A/B/ !accent!_e3/_d/ | 
!accent!_d2c2=e3/f/ | 
!accent!g>=e c/_d/_e/d< !accent!cB/ | 
B2A4 | 
A4!accent!G3/c/ | 
B4=A3/d/ | 
d2cB=AG | 
=A4(3BcB/ | 
B4D2 | 
E2C zz2 | 
C6- | 
C2>=B,2 _B,/C/_A,/B,/ | 
G,4E3/G,/ | 
A,2B,2C2 | 
F2!accent!A>G G/F/E/F/ | 
!accent!D2E zz2 | 
!accent!A2G z/ E/ (3E=B,C/ | 
!accent!_G2F zz2 | 
!accent!G,2A, zz2 | 
!accent!_c2>c2 (3cGA | 
!accent!G4G3/A/ | 
B2>B2 (3B^FG | 
B6- | 
B2>A2 (3:2:4A=Ez/F/ | 
D6- | 
D2z2z2 | 
z6 | 
z2A2(3:2:6B/A/_G/F/E/_D/ | 
_D4!accent!A2- | 
A_GF2B,3/F/ | 
E>F_G2A3/=A/ | 
B4d2 | 
c4F2 | 
f4ed | 
c4dc | 
B6- | 
B2z2z2 | 
Z4 | 
z2=A,2A,2 | 
=A,2>z2z2 | 
!accent!^C2>z2z2 | 
!accent!D2>z2z2 | 
z6 | 
G2A7/F/ | 
B>E {/E/}c2z2 | 
(3df>!accent!e e zz2 | 
z6 | 
G6- | 
G3A/G/ ^F/G/c3//B// | 
E4!accent!A3/G/ | 
F2C2D2 | 
E2(5:4:5D/E/D/^C/D/ !accent!G3/F/ | 
E2(5:4:5D/E/D/^C/D/ !accent!G3/F/ | 
E z !accent![EG,] z !accent![EG,] z | 
[E2G,2]z2z2 |]
